X:21
%%scale .6
T:Green Fields of Rossbeigh/ Lady of the House/ New Mown Meadow/ Bag of Spuds
M:4/4
K:G
T:Lady of the House, The
GABGc2BA|GBdg (3ege dB|GABG A2 (3Bcd|eAA2eAA2|
GABGc2BA|GBdg (3ege dB|GABG A2GA|B2dc BGG2:|:
gfeg fedf|efge dBAB|GABG A2 (3Bcd|eAA2eAA2|
gfeg fedf|efge dBAB|GABG A2GA|B2dc BGG2:|
T: The Green Fields Of Rossbeigh
R: reel
M: 4/4
L: 1/8
K: Edor
BE(3EDE BAFA|ABde fded|BE(3EDE BAFA|(3BcB AF E2dc|
BE(3EDE BAFA|ABde fded|BE(3EDE BAFA|BFAF E2FA:||
(3Bcd ef g2fe|dB(3BAB dBAd|(3Bcd ef gfge|dBAF E2ef|
gfga gfeg|fefg fedB|ABde fgfe|dBAF E2FA:||
T:New Mown Meadow, The
K:Gmix
AD D2D2EG|AcBG AGEG|Add2AGEG|G2 AG EDEG|
AD D2D2EG|AcBG AGEG|c3A B3A|1GBAG EDEG:|2GBAG EG2B|
d2Bd edBd|dGBG AGEG|d2Bd eddB|GBAG EG3|
d2Bd edBd|dGBG AGEG|c3A B3A|1GBAG EGGB:|2GBAG EDEG||
T:Bag of Spuds, The
K:Ador
A2eA cAeA|ABcd (3e=fe dB|G2 dG BGdB|GB B2 GBdB|
A2eA cAeA|ABcd (3e=fe dB|ABcd eg g2|dBGA BA A2:|:
a2 ea a2ea|agbg agef|(3gfe dc BGBd|gfga bgea|
a2 ea a2 (3efg|agbg agef|gedc BGBd|gedB BA A2:|

